packages/icons/src/gear.svg

<svg viewBox="0 0 16 16" xmlns="http://www.w3.org/2000/svg">
<path d="M2.68682 3.48795C2.59082 3.61595 2.43082 3.66395 2.28682 3.64795L1.53482 3.50395C1.35882 3.47195 1.16682 3.56795 1.10282 3.74395L0.926819 4.22395L0.750818 4.70395C0.686818 4.87995 0.750819 5.08795 0.926819 5.16795L1.58282 5.55195C1.71082 5.63195 1.79082 5.77595 1.79082 5.93595C1.77482 6.15995 1.79082 6.38395 1.80682 6.60795C1.82282 6.76795 1.75882 6.91195 1.63082 7.00795L1.00682 7.43995C0.846819 7.55195 0.798819 7.74395 0.878819 7.91995L1.08682 8.38395L1.29482 8.84795C1.37482 9.02395 1.56682 9.10395 1.74282 9.05595L2.47882 8.86395C2.62282 8.81595 2.78282 8.87995 2.89482 8.99195C3.03882 9.15195 3.21482 9.31195 3.39082 9.45595C3.51882 9.55195 3.56682 9.71195 3.55082 9.85595L3.40682 10.608C3.37482 10.8 3.47082 10.976 3.64682 11.04L4.12682 11.216L4.60682 11.392C4.78282 11.456 4.99082 11.392 5.07082 11.216L5.45482 10.56C5.53482 10.416 5.67882 10.352 5.83882 10.352C6.04682 10.368 6.27082 10.352 6.47882 10.336C6.63882 10.32 6.78282 10.384 6.87882 10.512L7.31082 11.152C7.42282 11.312 7.61482 11.36 7.79082 11.28L8.25482 11.072L8.71882 10.864C8.89482 10.784 8.97482 10.592 8.92682 10.416L8.73482 9.69595C8.68682 9.53595 8.75082 9.37595 8.86282 9.27995C9.02282 9.13595 9.18282 8.95995 9.32682 8.78395C9.42282 8.65595 9.58282 8.60795 9.72682 8.62395L10.4788 8.76795C10.6708 8.79995 10.8468 8.70395 10.9108 8.52795L11.0868 8.04795L11.2628 7.56795C11.3268 7.39195 11.2628 7.18395 11.0868 7.10395L10.4308 6.73595C10.2868 6.65595 10.2228 6.51195 10.2228 6.35195C10.2388 6.12795 10.2228 5.90395 10.2068 5.67995C10.1908 5.51995 10.2548 5.37595 10.3828 5.27995L11.0228 4.84795C11.1828 4.73595 11.2308 4.54395 11.1508 4.36795L10.9428 3.90395L10.7348 3.43995C10.6548 3.26395 10.4628 3.18395 10.2868 3.23195L9.56682 3.43995C9.40682 3.48795 9.24682 3.43995 9.15082 3.31195C9.00682 3.15195 8.84682 2.99195 8.67082 2.84795C8.54282 2.75195 8.49482 2.59195 8.51082 2.44795L8.65482 1.69595C8.68682 1.50395 8.59082 1.32795 8.41482 1.26395L7.93482 1.08795L7.45482 0.911951C7.27882 0.847951 7.07082 0.911952 6.99082 1.08795L6.62282 1.72795C6.54282 1.87195 6.39882 1.93595 6.23882 1.93595C5.99882 1.91995 5.77482 1.93595 5.53482 1.95195C5.37482 1.96795 5.23082 1.90395 5.13482 1.77595L4.70282 1.15195C4.59082 0.991951 4.39882 0.943952 4.22282 1.02395L3.75882 1.23195L3.29482 1.43995C3.11882 1.51995 3.03882 1.71195 3.08682 1.88795L3.27882 2.62395C3.32682 2.76795 3.26282 2.92795 3.15082 3.03995C2.97482 3.13595 2.83082 3.31195 2.68682 3.48795ZM3.88682 5.35995C4.30282 4.20795 5.56682 3.59995 6.73482 3.99995C7.88682 4.41595 8.49482 5.67995 8.09482 6.84795C7.69482 8.01595 6.41482 8.60795 5.24682 8.20795C4.07882 7.79195 3.47082 6.51195 3.88682 5.35995ZM14.5908 10.176C14.6548 10.08 14.6388 9.95195 14.5748 9.87195L14.3668 9.66395L14.1588 9.45595C14.0788 9.37595 13.9508 9.35995 13.8548 9.42395L13.4868 9.67995C13.4068 9.72795 13.3108 9.74395 13.2308 9.69595C13.1188 9.63195 12.9908 9.58395 12.8628 9.53595C12.7828 9.50395 12.7028 9.42395 12.7028 9.34395L12.6228 8.89595C12.6068 8.78395 12.5108 8.70395 12.3988 8.70395H12.0948H11.7908C11.6788 8.70395 11.5828 8.78395 11.5668 8.89595L11.4868 9.34395C11.4708 9.43995 11.4068 9.51995 11.3108 9.53595C11.1828 9.56795 11.0548 9.63195 10.9428 9.67995C10.8628 9.72795 10.7668 9.71195 10.6868 9.66395L10.3188 9.39195C10.2228 9.32795 10.0948 9.34395 10.0148 9.40795L9.80682 9.61595L9.59882 9.82395C9.51882 9.90395 9.50282 10.032 9.56682 10.128L9.82282 10.496C9.87082 10.576 9.88682 10.672 9.83882 10.752C9.77482 10.88 9.71082 11.008 9.67882 11.136C9.64682 11.232 9.58282 11.296 9.48682 11.312L9.03882 11.392C8.92682 11.408 8.84682 11.504 8.84682 11.616V11.92V12.224C8.84682 12.336 8.92682 12.432 9.03882 12.448L9.48682 12.528C9.58282 12.544 9.64682 12.608 9.67882 12.704C9.72682 12.832 9.77482 12.96 9.83882 13.072C9.88682 13.152 9.87082 13.248 9.82282 13.328L9.55082 13.696C9.48682 13.792 9.50282 13.904 9.56682 13.984L9.77482 14.192L9.98282 14.4C10.0628 14.48 10.1908 14.496 10.2868 14.432L10.6548 14.176C10.7348 14.128 10.8308 14.112 10.9108 14.16C11.0388 14.224 11.1508 14.272 11.2788 14.32C11.3748 14.352 11.4388 14.416 11.4548 14.512L11.5348 14.96C11.5508 15.072 11.6468 15.152 11.7588 15.152H12.0628H12.3668C12.4788 15.152 12.5748 15.072 12.5908 14.96L12.6708 14.512C12.6868 14.416 12.7508 14.352 12.8468 14.32C12.9748 14.272 13.1028 14.224 13.2148 14.16C13.2948 14.112 13.3908 14.128 13.4708 14.176L13.8388 14.448C13.9348 14.512 14.0628 14.496 14.1428 14.432L14.3508 14.224L14.5588 14.016C14.6388 13.936 14.6548 13.808 14.5908 13.712L14.3348 13.344C14.2868 13.264 14.2708 13.168 14.3188 13.088C14.3828 12.976 14.4308 12.848 14.4628 12.736C14.4948 12.64 14.5748 12.576 14.6548 12.56L15.1028 12.48C15.2148 12.464 15.2948 12.368 15.2948 12.256V11.952V11.648C15.2948 11.536 15.2148 11.44 15.1028 11.424L14.6548 11.344C14.5588 11.328 14.4948 11.264 14.4628 11.168C14.4308 11.04 14.3668 10.912 14.3188 10.8C14.2708 10.72 14.2868 10.624 14.3348 10.544L14.5908 10.176ZM13.0068 12.864C12.4948 13.392 11.6468 13.392 11.1348 12.88C10.6068 12.368 10.6068 11.52 11.1188 11.008C11.6308 10.496 12.4788 10.48 12.9908 10.992C13.5028 11.504 13.5188 12.336 13.0068 12.864Z" fill="#30AAAF"/>
</svg>

<svg viewBox="0 0 16 16" xmlns="http://www.w3.org/2000/svg"><path d="m2.68682 3.48795c-.096.128-.256.176-.4.16l-.752-.144c-.176-.032-.368.064-.432.24l-.176001.48-.176001.48c-.064.176.000001.384.176001.464l.656001.384c.128.08.208.224.208.384-.016.224 0 .448.016.672.016.16-.048.304-.176.4l-.624.432c-.160001.112-.208001.304-.128001.48l.208001.464.208.464c.08.176.272.256.448.208l.736-.192c.144-.048.304.016.416.128.144.16.32.32.496.464.128.096.176.256.16.4l-.144.75205c-.032.192.064.368.24.432l.48.176.48.176c.176.064.384 0 .464-.176l.384-.656c.08-.144.224-.208.384-.208.208.016.432 0 .64-.016.16-.016.304.048.4.176l.432.64c.112.16.304.208.48.128l.464-.208.464-.208c.176-.08.256-.272.208-.448l-.192-.72005c-.048-.16.016-.32.128-.416.16-.144.32-.32.464-.496.096-.128.256-.176.4-.16l.75198.144c.192.032.368-.064.432-.24l.176-.48.176-.48c.064-.176 0-.384-.176-.464l-.656-.368c-.144-.08-.208-.224-.208-.384.016-.224 0-.448-.016-.672-.016-.16.048-.304.176-.4l.64-.432c.16-.112.208-.304.128-.48l-.208-.464-.208-.464c-.08-.176-.272-.256-.448-.208l-.71998.208c-.16.048-.32 0-.416-.128-.144-.16-.304-.32-.48-.464-.128-.096-.176-.256-.16-.4l.144-.752c.032-.192-.064-.368-.24-.432l-.48-.176-.48-.175999c-.176-.064-.384.000001-.464.175999l-.368.64c-.08.144-.224.208-.384.208-.24-.016-.464 0-.704.016-.16.016-.304-.048-.4-.176l-.432-.624c-.112-.159999-.304-.207998-.48-.128l-.464.208-.464.208c-.176.08-.256.272-.208.448l.192.736c.048.144-.016.304-.128.416-.176.096-.32.272-.464.448zm1.2 1.872c.416-1.152 1.68-1.76 2.848-1.36 1.152.416 1.76 1.68 1.36 2.848s-1.68 1.76-2.848 1.36c-1.168-.416-1.776-1.696-1.36-2.848zm10.70398 4.81605c.064-.096.048-.22405-.016-.30405l-.208-.208-.208-.208c-.08-.08-.208-.096-.304-.032l-.368.256c-.08.048-.176.064-.256.016-.112-.064-.24-.112-.368-.16-.08-.032-.16-.112-.16-.192l-.08-.448c-.016-.112-.112-.192-.224-.192h-.304-.304c-.112 0-.208.08-.224.192l-.08.448c-.016.096-.08.176-.176.192-.128.032-.256.096-.368.144-.08.048-.176.032-.256-.016l-.368-.272c-.096-.064-.224-.048-.304.016l-.20798.208-.208.208c-.08.08-.096.20805-.032.30405l.256.368c.048.08.064.176.016.256-.064.128-.128.256-.16.384-.032.096-.096.16-.192.176l-.448.08c-.112.016-.192.112-.192.224v.304.304c0 .112.08.208.192.224l.448.08c.096.016.16.08.192.176.048.128.096.256.16.368.048.08.032.176-.016.256l-.272.368c-.064.096-.048.208.016.288l.208.208.208.208c.07998.08.20798.096.30398.032l.368-.256c.08-.048.176-.064.256-.016.128.064.24.112.368.16.096.032.16.096.176.192l.08.448c.016.112.112.192.224.192h.304.304c.112 0 .208-.08.224-.192l.08-.448c.016-.096.08-.16.176-.192.128-.048.256-.096.368-.16.08-.048.176-.032.256.016l.368.272c.096.064.224.048.304-.016l.208-.208.208-.208c.08-.08.096-.208.032-.304l-.256-.368c-.048-.08-.064-.176-.016-.256.064-.112.112-.24.144-.352.032-.096.112-.16.192-.176l.448-.08c.112-.016.192-.112.192-.224v-.304-.304c0-.112-.08-.208-.192-.224l-.448-.08c-.096-.016-.16-.08-.192-.176-.032-.128-.096-.256-.144-.368-.048-.08-.032-.176.016-.256zm-1.584 2.688c-.512.528-1.36.528-1.872.016-.528-.512-.528-1.36-.016-1.872s1.36-.528 1.872-.016.528 1.344.016 1.872z" fill="#30aaaf"/></svg>
